svgs/sharp-solid/smoking.svg

<svg xmlns="http://www.w3.org/2000/svg" viewBox="0 0 640 512"><!--! Font Awesome Pro 6.6.0 by @fontawesome - https://fontawesome.com License - https://fontawesome.com/license (Commercial License) Copyright 2024 Fonticons, Inc. --><path d="M448 0l0 43c0 38.2 15.2 74.8 42.2 101.8l21 21c21 21 32.8 49.5 32.8 79.2l0 43-64 0 0-43c0-12.7-5.1-24.9-14.1-33.9l-21-21C405.9 151.1 384 98.1 384 43l0-43 64 0zM576 288l0-43c0-38.2-15.2-74.8-42.2-101.8l-21-21c-21-21-32.8-49.5-32.8-79.2l0-43 64 0 0 43c0 12.7 5.1 24.9 14.1 33.9l21 21c39 39 60.9 91.9 60.9 147.1l0 43-64 0zM0 352l32 0 384 0 32 0 0 32 0 96 0 32-32 0L32 512 0 512l0-32 0-96 0-32zm224 64l0 32 160 0 0-32-160 0zm320-64l0 32 0 96 0 32-64 0 0-32 0-96 0-32 64 0zm96 0l0 32 0 96 0 32-64 0 0-32 0-96 0-32 64 0z"/></svg>

<svg xmlns="http://www.w3.org/2000/svg" viewBox="0 0 640 512"><!--! Font Awesome Pro 6.4.2 by @fontawesome - https://fontawesome.com License - https://fontawesome.com/license (Commercial License) Copyright 2023 Fonticons, Inc. --><path d="M448 0V43c0 38.2 15.2 74.8 42.2 101.8l21 21c21 21 32.8 49.5 32.8 79.2v43H480V245c0-12.7-5.1-24.9-14.1-33.9l-21-21C405.9 151.1 384 98.1 384 43V0h64zM576 288V245c0-38.2-15.2-74.8-42.2-101.8l-21-21c-21-21-32.8-49.5-32.8-79.2V0h64V43c0 12.7 5.1 24.9 14.1 33.9l21 21c39 39 60.9 91.9 60.9 147.1v43H576zM0 352H32 416h32v32 96 32H416 32 0V480 384 352zm224 64v32H384V416H224zm320-64v32 96 32H480V480 384 352h64zm96 0v32 96 32H576V480 384 352h64z"/></svg>
